src/images/svg/be-square/mobile-dev.svg

<svg width="48" height="48" viewBox="0 0 48 48" fill="none" xmlns="http://www.w3.org/2000/svg">
<path fill-rule="evenodd" clip-rule="evenodd" d="M32.636 20.4346C32.7364 20.4967 32.851 20.5321 32.9689 20.5374C33.0868 20.5427 33.2041 20.5178 33.3096 20.4651L38.8481 17.6958C38.9633 17.6384 39.0602 17.55 39.128 17.4405C39.1957 17.3311 39.2316 17.2049 39.2316 17.0762C39.2316 16.9475 39.1957 16.8213 39.128 16.7118C39.0602 16.6024 38.9633 16.514 38.8481 16.4566L33.3096 13.6873C33.204 13.6345 33.0867 13.6097 32.9688 13.615C32.8509 13.6203 32.7364 13.6557 32.636 13.7178C32.5356 13.7799 32.4528 13.8666 32.3953 13.9697C32.3379 14.0728 32.3078 14.1889 32.3078 14.3069V19.8455C32.3078 19.9635 32.3379 20.0796 32.3953 20.1827C32.4528 20.2858 32.5356 20.3725 32.636 20.4346ZM33.6925 15.4271L36.9906 17.0762L33.6925 18.7253V15.4271Z" fill="#FF444F"/>
<path d="M22.6152 8.76927H25.3844C25.7668 8.76927 26.0767 9.07923 26.0767 9.46158C26.0767 9.84393 25.7668 10.1539 25.3844 10.1539H22.6152C22.2328 10.1539 21.9229 9.84393 21.9229 9.46158C21.9229 9.07923 22.2328 8.76927 22.6152 8.76927Z" fill="#FF444F"/>
<path fill-rule="evenodd" clip-rule="evenodd" d="M19.8458 17.7695H17.0766C16.893 17.7695 16.7169 17.6966 16.5871 17.5668C16.4572 17.4369 16.3843 17.2608 16.3843 17.0772V14.308C16.3843 14.1244 16.4572 13.9483 16.5871 13.8185C16.7169 13.6886 16.893 13.6157 17.0766 13.6157H19.8458C20.0295 13.6157 20.2055 13.6886 20.3354 13.8185C20.4652 13.9483 20.5381 14.1244 20.5381 14.308V17.0772C20.5381 17.2608 20.4652 17.4369 20.3354 17.5668C20.2055 17.6966 20.0295 17.7695 19.8458 17.7695ZM19.1535 15.0003H17.7689V16.3849H19.1535V15.0003Z" fill="#FF444F"/>
<path d="M24.0002 39.2304C23.6178 39.2304 23.3078 38.9204 23.3078 38.538C23.3078 38.1557 23.6178 37.8457 24.0002 37.8457C24.3825 37.8457 24.6925 38.1557 24.6925 38.538C24.6925 38.9204 24.3825 39.2304 24.0002 39.2304Z" fill="#FF444F"/>
<path fill-rule="evenodd" clip-rule="evenodd" d="M22.6152 17.7695H25.3844C25.568 17.7695 25.7441 17.6966 25.874 17.5668C26.0038 17.4369 26.0767 17.2608 26.0767 17.0772V14.308C26.0767 14.1244 26.0038 13.9483 25.874 13.8185C25.7441 13.6886 25.568 13.6157 25.3844 13.6157H22.6152C22.4316 13.6157 22.2555 13.6886 22.1256 13.8185C21.9958 13.9483 21.9229 14.1244 21.9229 14.308V17.0772C21.9229 17.2608 21.9958 17.4369 22.1256 17.5668C22.2555 17.6966 22.4316 17.7695 22.6152 17.7695ZM23.3075 15.0003H24.6921V16.3849H23.3075V15.0003Z" fill="#FF444F"/>
<path fill-rule="evenodd" clip-rule="evenodd" d="M20.5381 19.8466V22.6158C20.5381 22.7994 20.4652 22.9755 20.3354 23.1053C20.2055 23.2352 20.0295 23.3081 19.8458 23.3081H17.0766C16.893 23.3081 16.7169 23.2352 16.5871 23.1053C16.4572 22.9755 16.3843 22.7994 16.3843 22.6158V19.8466C16.3843 19.663 16.4572 19.4869 16.5871 19.357C16.7169 19.2272 16.893 19.1543 17.0766 19.1543H19.8458C20.0295 19.1543 20.2055 19.2272 20.3354 19.357C20.4652 19.4869 20.5381 19.663 20.5381 19.8466ZM17.7689 21.9235H19.1535V20.5389H17.7689V21.9235Z" fill="#FF444F"/>
<path fill-rule="evenodd" clip-rule="evenodd" d="M22.6152 23.3081H25.3844C25.568 23.3081 25.7441 23.2352 25.874 23.1053C26.0038 22.9755 26.0767 22.7994 26.0767 22.6158V19.8466C26.0767 19.663 26.0038 19.4869 25.874 19.357C25.7441 19.2272 25.568 19.1543 25.3844 19.1543H22.6152C22.4316 19.1543 22.2555 19.2272 22.1256 19.357C21.9958 19.4869 21.9229 19.663 21.9229 19.8466V22.6158C21.9229 22.7994 21.9958 22.9755 22.1256 23.1053C22.2555 23.2352 22.4316 23.3081 22.6152 23.3081ZM23.3075 20.5389H24.6921V21.9235H23.3075V20.5389Z" fill="#FF444F"/>
<path fill-rule="evenodd" clip-rule="evenodd" d="M25.3844 28.846H22.6152C22.4316 28.846 22.2555 28.7731 22.1256 28.6433C21.9958 28.5134 21.9229 28.3373 21.9229 28.1537V25.3845C21.9229 25.2009 21.9958 25.0248 22.1256 24.8949C22.2555 24.7651 22.4316 24.6922 22.6152 24.6922H25.3844C25.568 24.6922 25.7441 24.7651 25.874 24.8949C26.0038 25.0248 26.0767 25.2009 26.0767 25.3845V28.1537C26.0767 28.3373 26.0038 28.5134 25.874 28.6433C25.7441 28.7731 25.568 28.846 25.3844 28.846ZM24.6921 26.0768H23.3075V27.4614H24.6921V26.0768Z" fill="#FF444F"/>
<path fill-rule="evenodd" clip-rule="evenodd" d="M28.1537 28.846H30.923C31.1066 28.846 31.2827 28.7731 31.4125 28.6433C31.5424 28.5134 31.6153 28.3373 31.6153 28.1537V25.3845C31.6153 25.2009 31.5424 25.0248 31.4125 24.8949C31.2827 24.7651 31.1066 24.6922 30.923 24.6922H28.1537C27.9701 24.6922 27.794 24.7651 27.6642 24.8949C27.5344 25.0248 27.4614 25.2009 27.4614 25.3845V28.1537C27.4614 28.3373 27.5344 28.5134 27.6642 28.6433C27.794 28.7731 27.9701 28.846 28.1537 28.846ZM28.8461 26.0768H30.2307V27.4614H28.8461V26.0768Z" fill="#FF444F"/>
<path fill-rule="evenodd" clip-rule="evenodd" d="M25.3844 34.3846H22.6152C22.4316 34.3846 22.2555 34.3117 22.1256 34.1818C21.9958 34.052 21.9229 33.8759 21.9229 33.6923V30.923C21.9229 30.7394 21.9958 30.5633 22.1256 30.4335C22.2555 30.3037 22.4316 30.2307 22.6152 30.2307H25.3844C25.568 30.2307 25.7441 30.3037 25.874 30.4335C26.0038 30.5633 26.0767 30.7394 26.0767 30.923V33.6923C26.0767 33.8759 26.0038 34.052 25.874 34.1818C25.7441 34.3117 25.568 34.3846 25.3844 34.3846ZM24.6921 31.6154H23.3075V33H24.6921V31.6154Z" fill="#FF444F"/>
<path fill-rule="evenodd" clip-rule="evenodd" d="M28.1537 34.3846H30.923C31.1066 34.3846 31.2827 34.3117 31.4125 34.1818C31.5424 34.052 31.6153 33.8759 31.6153 33.6923V30.923C31.6153 30.7394 31.5424 30.5633 31.4125 30.4335C31.2827 30.3037 31.1066 30.2307 30.923 30.2307H28.1537C27.9701 30.2307 27.794 30.3037 27.6642 30.4335C27.5344 30.5633 27.4614 30.7394 27.4614 30.923V33.6923C27.4614 33.8759 27.5344 34.052 27.6642 34.1818C27.794 34.3117 27.9701 34.3846 28.1537 34.3846ZM28.8461 31.6154H30.2307V33H28.8461V31.6154Z" fill="#FF444F"/>
<path d="M16.3847 28.3843H8.76928V29.7689H16.3847V28.3843Z" fill="#FF444F"/>
<path d="M8.76928 32.0771H16.3847V33.4618H8.76928V32.0771Z" fill="#FF444F"/>
<path fill-rule="evenodd" clip-rule="evenodd" d="M6 36.4615V25.3846C6 25.201 6.07294 25.0249 6.20277 24.8951C6.33261 24.7652 6.5087 24.6923 6.69231 24.6923H13.6154V8.76923C13.6154 8.03479 13.9071 7.33042 14.4265 6.81109C14.9458 6.29176 15.6502 6 16.3846 6H31.6154C32.3498 6 33.0542 6.29176 33.5735 6.81109C34.0929 7.33042 34.3846 8.03479 34.3846 8.76923V10.8462H41.3077C41.4913 10.8462 41.6674 10.9191 41.7972 11.0489C41.9271 11.1788 42 11.3549 42 11.5385V22.6154C42 22.799 41.9271 22.9751 41.7972 23.1049C41.6674 23.2348 41.4913 23.3077 41.3077 23.3077H34.3846V39.2308C34.3846 39.9652 34.0929 40.6696 33.5735 41.1889C33.0542 41.7082 32.3498 42 31.6154 42H16.3846C15.6502 42 14.9458 41.7082 14.4265 41.1889C13.9071 40.6696 13.6154 39.9652 13.6154 39.2308V37.1538H6.69231C6.5087 37.1538 6.33261 37.0809 6.20277 36.9511C6.07294 36.8212 6 36.6452 6 36.4615ZM30.2308 21.9231H40.6154V12.2308H30.2308V14.3077C30.2307 14.4913 30.1578 14.6674 30.0279 14.7972L29.1328 15.6923L30.0279 16.5875C30.1578 16.7173 30.2307 16.8933 30.2308 17.0769V21.9231ZM15.4055 7.79016C15.1459 8.04983 15 8.40201 15 8.76923V24.6923H18.4615C18.6452 24.6923 18.8212 24.7652 18.9511 24.8951C19.0809 25.0249 19.1538 25.201 19.1538 25.3846V30.6365L20.3356 31.8182C20.4654 31.9481 20.5383 32.1241 20.5383 32.3077C20.5383 32.4913 20.4654 32.6673 20.3356 32.7972L19.1538 33.9789V36.4615C19.1538 36.6452 19.0809 36.8212 18.9511 36.9511C18.8212 37.0809 18.6452 37.1538 18.4615 37.1538H15V39.2308C15 39.598 15.1459 39.9502 15.4055 40.2098C15.6652 40.4695 16.0174 40.6154 16.3846 40.6154H31.6154C31.9826 40.6154 32.3348 40.4695 32.5945 40.2098C32.8541 39.9502 33 39.598 33 39.2308V23.3077H29.5385C29.3549 23.3077 29.1788 23.2348 29.0489 23.1049C28.9191 22.9751 28.8462 22.799 28.8462 22.6154V17.3635L27.6644 16.1818C27.5346 16.0519 27.4617 15.8759 27.4617 15.6923C27.4617 15.5087 27.5346 15.3327 27.6644 15.2028L28.8462 14.0211V11.5385C28.8462 11.3549 28.9191 11.1788 29.0489 11.0489C29.1788 10.9191 29.3549 10.8462 29.5385 10.8462H33V8.76923C33 8.40201 32.8541 8.04983 32.5945 7.79016C32.3348 7.53049 31.9826 7.38462 31.6154 7.38462H16.3846C16.0174 7.38462 15.6652 7.53049 15.4055 7.79016ZM17.7692 26.0769H7.38462V35.7692H17.7692V33.6923C17.7693 33.5087 17.8422 33.3326 17.9721 33.2028L18.8672 32.3077L17.9721 31.4125C17.8422 31.2827 17.7693 31.1067 17.7692 30.9231V26.0769Z" fill="#FF444F"/>
</svg>

<svg xmlns="http://www.w3.org/2000/svg" width="48" height="48" fill="#ff444f"  xmlns:v="https://vecta.io/nano"><path fill-rule="evenodd" d="M32.636 20.435a.69.69 0 0 0 .333.103c.118.005.235-.02.341-.072l5.538-2.769a.69.69 0 0 0 .383-.62c0-.129-.036-.255-.104-.364s-.165-.198-.28-.255l-5.538-2.769a.69.69 0 0 0-.674.03c-.1.062-.183.149-.241.252s-.087.219-.087.337v5.539c0 .118.03.234.087.337s.14.19.241.252zm1.056-5.007l3.298 1.649-3.298 1.649v-3.298z"/><path d="M22.615 8.769h2.769a.69.69 0 1 1 0 1.385h-2.769a.69.69 0 1 1 0-1.385z"/><path fill-rule="evenodd" d="M19.846 17.77h-2.769a.69.69 0 0 1-.692-.692v-2.769a.69.69 0 0 1 .692-.692h2.769a.69.69 0 0 1 .692.692v2.769c0 .184-.073.36-.203.49a.69.69 0 0 1-.49.203zM19.154 15h-1.385v1.385h1.385V15z"/><path d="M24 39.23c-.382 0-.692-.31-.692-.692s.31-.692.692-.692.692.31.692.692-.31.692-.692.692z"/><g fill-rule="evenodd"><path d="M22.615 17.77h2.769c.184 0 .36-.073.49-.203s.203-.306.203-.49v-2.769a.69.69 0 0 0-.692-.692h-2.769a.69.69 0 0 0-.692.692v2.769c0 .184.073.36.203.49s.306.203.49.203zm.693-2.77h1.385v1.385h-1.385V15zm-2.77 4.847v2.769a.69.69 0 0 1-.692.692h-2.769a.69.69 0 0 1-.692-.692v-2.769a.69.69 0 0 1 .692-.692h2.769a.69.69 0 0 1 .49.203c.13.13.203.306.203.49zm-2.769 2.077h1.385v-1.385h-1.385v1.385zm4.846 1.384h2.769a.69.69 0 0 0 .692-.692v-2.769c0-.184-.073-.36-.203-.49s-.306-.203-.49-.203h-2.769c-.184 0-.36.073-.49.203s-.203.306-.203.49v2.769a.69.69 0 0 0 .692.692zm.692-2.769h1.385v1.385h-1.385v-1.385zm2.077 8.307h-2.769c-.184 0-.36-.073-.49-.203s-.203-.306-.203-.49v-2.769c0-.184.073-.36.203-.49s.306-.203.49-.203h2.769c.184 0 .36.073.49.203s.203.306.203.49v2.769c0 .184-.073.36-.203.49s-.306.203-.49.203zm-.692-2.769h-1.385v1.385h1.385v-1.385z"/><path d="M28.154 28.846h2.769a.69.69 0 0 0 .692-.692v-2.769a.69.69 0 0 0-.692-.692h-2.769a.69.69 0 0 0-.489.203c-.13.13-.203.306-.203.49v2.769c0 .184.073.36.203.49a.69.69 0 0 0 .489.203zm.692-2.769h1.385v1.385h-1.385v-1.385zm-3.462 8.308h-2.769a.69.69 0 0 1-.692-.692v-2.769a.69.69 0 0 1 .203-.489c.13-.13.306-.203.49-.203h2.769c.184 0 .36.073.49.203a.69.69 0 0 1 .203.489v2.769a.69.69 0 0 1-.692.692zm-.692-2.769h-1.385V33h1.385v-1.385zm3.462 2.769h2.769a.69.69 0 0 0 .692-.692v-2.769a.69.69 0 0 0-.692-.692h-2.769a.69.69 0 0 0-.692.692v2.769a.69.69 0 0 0 .692.692zm.692-2.769h1.385V33h-1.385v-1.385z"/></g><path d="M16.385 28.384H8.769v1.385h7.615v-1.385zm-7.616 3.693h7.615v1.385H8.769v-1.385z"/><path fill-rule="evenodd" d="M6 36.462V25.385a.69.69 0 0 1 .692-.692h6.923V8.769A2.77 2.77 0 0 1 16.385 6h15.231a2.77 2.77 0 0 1 2.769 2.769v2.077h6.923a.69.69 0 0 1 .692.692v11.077a.69.69 0 0 1-.692.692h-6.923v15.923A2.77 2.77 0 0 1 31.615 42H16.385a2.77 2.77 0 0 1-2.769-2.769v-2.077H6.692A.69.69 0 0 1 6 36.462zm24.231-14.538h10.385v-9.692H30.231v2.077a.69.69 0 0 1-.203.489l-.895.895.895.895a.69.69 0 0 1 .203.489v4.846zM15.406 7.79c-.26.26-.405.612-.405.979v15.923h3.462a.69.69 0 0 1 .692.692v5.252l1.182 1.182a.69.69 0 0 1 0 .979l-1.182 1.182v2.483a.69.69 0 0 1-.692.692H15v2.077c0 .367.146.719.406.979s.612.406.979.406h15.231c.367 0 .719-.146.979-.406s.406-.612.406-.979V23.308h-3.462a.69.69 0 0 1-.692-.692v-5.252l-1.182-1.182a.69.69 0 0 1 0-.979l1.182-1.182v-2.483c0-.184.073-.36.203-.49s.306-.203.49-.203H33V8.769c0-.367-.146-.719-.406-.979s-.612-.406-.979-.406H16.385c-.367 0-.719.146-.979.406zm2.364 18.287H7.385v9.692h10.385v-2.077a.69.69 0 0 1 .203-.489l.895-.895-.895-.895a.69.69 0 0 1-.203-.489v-4.846z"/></svg>
